message-arrow-right.svg

<svg fill="currentColor" viewBox="0 0 24 24"><path d="M20 2H4c-1.1 0-2 .9-2 2v18l4-4h14c1.1 0 2-.9 2-2V4c0-1.1-.9-2-2-2m-8 12-1.2-1.2 1.8-1.8H8V9h4.5l-1.8-1.8L12 6l4 4z"/></svg>

<svg  viewBox="0 0 24 24" fill="currentColor"><path  d="M20 2H4C2.9 2 2 2.9 2 4V22L6 18H20C21.1 18 22 17.1 22 16V4C22 2.9 21.1 2 20 2M12 14L10.8 12.8L12.6 11H8V9H12.5L10.7 7.2L12 6L16 10L12 14Z"/></svg>
